packages/office-viewer/src/excel/io/excel/preset/icons/crossSymbolRed.svg

<svg width="16" height="16" viewBox="0 0 16 16" fill="none" xmlns="http://www.w3.org/2000/svg">
	<path fill-rule="evenodd" clip-rule="evenodd" d="M6.19735 8L2 3.80265L3.80265 2L8 6.19735L12.1973 2L14 3.80265L9.80265 8L14 12.1973L12.1973 14L8 9.80265L3.80265 14L2 12.1973L6.19735 8Z" fill="#FF9198" />
	<path d="M8.35355 6.5509L12.1973 2.70711L13.2929 3.80265L9.4491 7.64645L9.09555 8L9.4491 8.35355L13.2929 12.1973L12.1973 13.2929L8.35355 9.4491L8 9.09555L7.64645 9.4491L3.80265 13.2929L2.70711 12.1973L6.5509 8.35355L6.90445 8L6.5509 7.64645L2.70711 3.80265L3.80265 2.70711L7.64645 6.5509L8 6.90445L8.35355 6.5509Z" stroke="black" stroke-opacity="0.2" />
</svg>

<svg xmlns="http://www.w3.org/2000/svg" width="16" height="16" fill="none"><path fill="#FF9198" fill-rule="evenodd" d="M6.197 8 2 3.803 3.803 2 8 6.197 12.197 2 14 3.803 9.803 8 14 12.197 12.197 14 8 9.803 3.803 14 2 12.197z" clip-rule="evenodd"/><path stroke="#000" stroke-opacity=".2" d="m8.354 6.55 3.843-3.843 1.096 1.096-3.844 3.843L9.096 8l.353.354 3.844 3.843-1.096 1.096-3.843-3.844L8 9.096l-.354.353-3.843 3.844-1.096-1.096 3.844-3.843L6.904 8l-.353-.354-3.844-3.843 1.096-1.096 3.843 3.844.354.353z"/></svg>
